X: 11805
T: Ellen O'Leary's
R: jig
M: 6/8
K: Dmajor
|:~F2D EFG|Adc ~A2G|FDF GEG|FDF EDE|
~F2D EFG|~Adc A2G|FDF GEC|1 EDC DAG:|2 EDC D2e||
|:fed edc|Adc ~d2e|fed edc|A/c/dF A2e|
[1 fed edc|Adc ~A2G|FDF GEC|EDC D2e:|
[2 f/g/af edc|Adc ~A2G|FDF GEC|EDC DAG||

